templates/main/source/images/close-filter.svg

<?xml version="1.0" encoding="utf-8"?>
<svg width="20px" height="16px" viewBox="0 0 20 16" version="1.1" xmlns:xlink="http://www.w3.org/1999/xlink" xmlns="http://www.w3.org/2000/svg">
  <desc>Created with Lunacy</desc>
  <path d="M4 10L1 10C0.448 10 0 9.553 0 9C0 8.448 0.448 8 1 8L3 8L3 1C3 0.448 3.448 0 4 0C4.552 0 5 0.448 5 1L5 9C5 9.553 4.552 10 4 10ZM10 5C9.448 5 9 4.552 9 4L9 1C9 0.448 9.448 0 10 0C10.553 0 11 0.448 11 1L11 4C11 4.552 10.553 5 10 5ZM16 7L19 7C19.553 7 20 6.552 20 6C20 5.448 19.553 5 19 5L17 5L17 1C17 0.448 16.553 0 16 0C15.447 0 15 0.448 15 1L15 6C15 6.552 15.447 7 16 7ZM11 9L12 9C12.553 9 13 8.552 13 8C13 7.448 12.553 7 12 7L8 7C7.448 7 7 7.448 7 8C7 8.552 7.448 9 8 9L9 9L9 15C9 15.553 9.448 16 10 16C10.553 16 11 15.553 11 15L11 9ZM11 9L11 8C11 7.448 10.553 7 10 7C9.448 7 9 7.448 9 8L9 9L11 9ZM16 16C15.447 16 15 15.553 15 15L15 10C15 9.447 15.447 9 16 9C16.553 9 17 9.447 17 10L17 15C17 15.553 16.553 16 16 16ZM4 16C3.448 16 3 15.553 3 15L3 13C3 12.447 3.448 12 4 12C4.552 12 5 12.447 5 13L5 15C5 15.553 4.552 16 4 16Z" id="Combined-Shape" fill="#FFFFFF" fill-rule="evenodd" stroke="none" />
</svg>

<svg width="20" height="16" viewBox="0 0 20 16" xmlns:xlink="http://www.w3.org/1999/xlink" xmlns="http://www.w3.org/2000/svg"><path d="M4 10H1a1 1 0 110-2h2V1a1 1 0 012 0v8a1 1 0 01-1 1zm6-5a1 1 0 01-1-1V1a1 1 0 012 0v3a1 1 0 01-1 1zm6 2h3a1 1 0 100-2h-2V1a1 1 0 10-2 0v5a1 1 0 001 1zm-5 2h1a1 1 0 100-2H8a1 1 0 000 2h1v6a1 1 0 102 0V9zm0 0V8a1 1 0 10-2 0v1h2zm5 7a1 1 0 01-1-1v-5a1 1 0 112 0v5a1 1 0 01-1 1zM4 16a1 1 0 01-1-1v-2a1 1 0 112 0v2a1 1 0 01-1 1z" id="Combined-Shape" fill="#FFF" fill-rule="evenodd" stroke="none"/></svg>
